app/client/src/assets/icons/blueprintjs/16px/issue.svg

<?xml version="1.0" encoding="UTF-8"?>
<svg width="16px" height="16px" viewBox="0 0 16 16" version="1.1" xmlns="http://www.w3.org/2000/svg" xmlns:xlink="http://www.w3.org/1999/xlink">
    <!-- Generator: Sketch 45.2 (43514) - http://www.bohemiancoding.com/sketch -->
    <title>pt-icon-issue</title>
    <desc>Created with Sketch.</desc>
    <defs></defs>
    <g id="Page-1" stroke="none" stroke-width="1" fill="none" fill-rule="evenodd">
        <g id="pt-icon-issue" fill="#10161A">
            <path d="M8,16 C3.581722,16 0,12.418278 0,8 C0,3.581722 3.581722,0 8,0 C12.418278,0 16,3.581722 16,8 C16,12.418278 12.418278,16 8,16 Z M8,14 C11.3137085,14 14,11.3137085 14,8 C14,4.6862915 11.3137085,2 8,2 C4.6862915,2 2,4.6862915 2,8 C2,11.3137085 4.6862915,14 8,14 Z M9,12 L7,12 L7,10 L9,10 L9,12 Z M9,9 L7,9 L7,4 L9,4 L9,9 Z" id="pt-icon-issue-16"></path>
        </g>
    </g>
</svg>

<svg xmlns="http://www.w3.org/2000/svg" width="16" height="16"><path fill-rule="evenodd" d="M8 16A8 8 0 1 1 8 0a8 8 0 0 1 0 16Zm0-2A6 6 0 1 0 8 2a6 6 0 0 0 0 12Zm1-2H7v-2h2v2Zm0-3H7V4h2v5Z"/></svg>
